X:1
T:No Longer Lonely
T:No Longer Lonely
T:Robert Harkness
T:Robert Harkness, 1920
T:Public Domain Courtesy of the Cyber Hymnal™
T:Public Domain Courtesy of the Cyber Hymnal™
C:Robert Harkness
Z:Public Domain
Z:Courtesy of the Cyber Hymnal™
%%score ( 1 2 ) ( 3 4 )
L:1/8
Q:1/4=100
M:4/4
K:Bb
V:1 treble 
V:2 treble 
V:3 bass 
V:4 bass 
V:1
 BAcB AGAB | [DF]2 [DF]3 FGD x | [EF]2 [EF]3 [A,E][A,D][A,C] x | F6 z2 | BAcB AGAB | %5
w: 1.~On life’s path- way I am nev- er|lone- ly, My Lord is|with me, my Lord di-|vine;|Ev- er pre- sent Guide, I trust Him|
w: 2.~I shall not be lone- ly in my|sor- row, He will sus-|tain me un- til the|end;|Dark- est night He turns to bright- est|
w: 3.~I shall not be lone- ly in the|val- ley Tho’ sha- dows|ga- ther, I will not|fear;|He has prom- ised ev- er to up-|
 [DF]2 [DF]3 FGA x | [=Ec]2 c3 z BAG | F4- !fermata![EF] ||"^Refrain" [EF][EG][EA] | %9
w: on- ly, No long- er|lone- ly, for He is|mine. *||
w: mor- row, No long- er|lone- ly! He is my|Friend. No|* long- er|
w: hold me, No long- er|lone- ly! He will be|near. *||
 [DB]2 [DF]3 [DB][FA][FB] | [Ec]2 [EG]4 [EB]2 | [EA]>[EA] [EA][EG] [EF][EG][EA][Ec] | %12
w: |||
w: lone- ly, No long- er|lone- ly, For|Je- sus is the Friend of friends to|
w: |||
 F4- [_EF][EF][EG][EA] | [DB]2 [DF]3 [DB][FA][FB] | [=Ec]2 [EG]4 [EB]2 | %15
w: |||
w: me; No long- er lone-|* ly, No long- er|lone- ly, For|
w: |||
 [EA]>[EA] [EA][EG] [EF][EG][EA][Ec] | !fermata!B6 !fermata!z2 |] %17
w: ||
w: Je- sus is the Friend of friends to|me.|
w: ||
V:2
 [DF]2 [DF]2 [^C=E]2 [CE]2 | x5 [B,D]3 x | x9 | (B,2 =E2 _E2) x2 | [DF]2 [DF]2 [^C=E]2 [CE]2 | %5
 x5 F F2 x | x2 (=E2 E2 E2) x | F2 E2 x || x3 | x8 | x8 | x8 | F2 =E2 x4 | x8 | x8 | x8 | %16
 (DF=E_E D2) x2 |] %17
V:3
 B,A,CB, B,2 B,2 | [F,B,]2 B,3 z F,G,D, | [F,A,]2 A,3 z G,F,[E,F,] | ([D,F,]2 [_D,B,]2 A,4) | %4
w: ~ ~ ~ ~ ~ ~|~ ~ ~ ~ ~|* ~ ~ ~ ~|~ * *|
 B,A,CB, B,2 B,2 | [F,B,]2 B,3 B,,[C,A,]B,C | [C,G,]2 G,3 z DCB, | (A,2 B,2 !fermata![F,C]) || %8
w: ~ ~ ~ ~ ~ ~|~ ~ ~ ~ ~ ~|~ ~ ~ ~ ~|~ * *|
 [F,A,][F,B,][F,C] | [B,,B,]2 [B,,B,]3 [B,,F,][E,C][D,B,] | [E,G,]2 [E,B,]4 [C,C]2 | %11
w: * ~ ~|~ ~ ~ ~ ~|~ ~ ~|
 [F,C]>[F,C] [F,C][F,B,] [F,A,][F,B,][F,C][F,A,] | [D,B,]2 [_D,B,]2 [C,A,][F,A,][F,B,][F,C] | %13
w: ~ ~ ~ ~ ~ ~ ~ ~|~ ~ ~ ~ ~ ~|
 [B,,B,]2 [B,,B,]3 [B,,F,][E,C][D,B,] | [C,B,]2 [C,B,]4 [C,G,]2 | %15
w: ~ ~ ~ to me;|~ ~ ~|
 [C,F,]>[F,C] [F,C][F,B,] [F,A,][F,B,][F,C][F,A,] | (B,A,G,_G, F,2) z2 |] %17
w: ~ ~ ~ ~ ~ ~ ~ ~|~ ~ ~ ~ ~|
V:4
 x4 A,G,A,B, | x2 F,2 B,,4 x | x2 C,2 (F,,2 F,) x2 | x4 (C,2 F,2) | x4 A,G,A,B, | x2 F,2 C,2 x3 | %6
 x2 (C,2 C,2 C,2) x | F,4- x || x3 | x8 | x8 | x8 | x8 | x8 | x8 | x8 | B,,6 x2 |] %17

